images/country-icon-2.svg

<svg width="18" height="18" fill="none" xmlns="http://www.w3.org/2000/svg"><mask id="mask0_2129_11547" style="mask-type:alpha" maskUnits="userSpaceOnUse" x="0" y="0" width="18" height="18"><circle cx="9" cy="9" r="9" fill="#D9D9D9"/></mask><g mask="url(#mask0_2129_11547)"><path d="M34.3 6.5H0v1.6h34.3V6.5zm0-3.2H0v1.6h34.3V3.3zm0-3.3H0v1.6h34.3V0zm0 9.8H0v1.6h34.3V9.8zm0 3.2H0v1.6h34.3V13zm0 3.3H0v1.6h34.3v-1.6zm0 3.3H0v1.6h34.3v-1.6z" fill="#DB2E2E"/><path d="M34.3 4.9H0v1.6h34.3V4.9zm0-3.3H0v1.6h34.3V1.6zm0 6.6H0v1.6h34.3V8.2zm0 3.2H0V13h34.3v-1.6zm0 3.3H0v1.6h34.3v-1.6zm0 3.2H0v1.6h34.3v-1.6z" fill="#fff"/><path d="M12.8.1H0V10h12.8V.1z" fill="#2E4593"/><path d="M10.7 2l.1.4-.3-.2-.3.2.1-.4-.3-.2h.4l.1-.4.1.4h.4l-.3.2zm0 2l.1.4-.3-.3-.3.3.1-.4-.3-.2h.4l.1-.4.1.4h.4l-.3.2zm0 2l.1.4-.3-.3-.3.3.1-.4-.3-.2h.4l.1-.4.1.4h.4l-.3.2zm0 2l.1.4-.3-.3-.3.3.1-.4-.3-.2h.4l.1-.4.1.4h.4l-.3.2zM8.6 2l.1.4-.3-.2-.3.2.1-.4-.3-.2h.4l.1-.4.1.4h.4l-.3.2zm0 2l.1.4-.3-.3-.3.3.1-.4-.3-.2h.4l.1-.4.1.4h.4l-.3.2zm0 2l.1.4-.3-.3-.3.3.1-.4-.3-.2h.4l.1-.4.1.4h.4l-.3.2zm0 2l.1.4-.3-.3-.3.3.1-.4-.3-.2h.4l.1-.4.1.4h.4l-.3.2zM6.5 2l.1.4-.3-.2-.3.2.1-.4-.3-.2h.4l.1-.4.1.4h.4l-.3.2zm0 2l.1.4-.3-.3-.3.3.1-.4-.3-.2h.4l.1-.4.1.4h.4l-.3.2zm0 2l.1.4-.3-.3-.3.3.1-.4-.3-.2h.4l.1-.4.1.4h.4l-.3.2zm0 2l.1.4-.3-.3-.3.3.1-.4-.3-.2h.4l.1-.4.1.4h.4l-.3.2zM4.4 2l.1.4-.3-.2-.3.2L4 2l-.3-.2h.4l.1-.4.1.4h.4l-.3.2zm0 2l.1.4-.3-.3-.3.3L4 4l-.3-.2h.4l.1-.4.1.4h.4l-.3.2zm0 2l.1.4-.3-.3-.3.3L4 6l-.3-.2h.4l.1-.4.1.4h.4l-.3.2zm0 2l.1.4-.3-.3-.3.3L4 8l-.3-.2h.4l.1-.4.1.4h.4l-.3.2zM2.3 2l.1.4-.3-.2-.3.2.1-.4-.3-.2H2l.1-.4.1.4h.4l-.3.2zm0 2l.1.4-.3-.3-.3.3.1-.4-.3-.2H2l.1-.4.1.4h.4l-.3.2zm0 2l.1.4-.3-.3-.3.3.1-.4-.3-.2H2l.1-.4.1.4h.4l-.3.2zm0 2l.1.4-.3-.3-.3.3.1-.4-.3-.2H2l.1-.4.1.4h.4l-.3.2zm9.4-5l.2.4-.4-.2-.3.2.2-.4-.4-.2h.4l.1-.4.2.4h.4l-.4.2zm0 2l.2.4-.4-.3-.3.3.2-.4-.4-.2h.4l.1-.4.2.4h.4l-.4.2zm0 2l.2.4-.4-.3-.3.3.2-.4-.4-.2h.4l.1-.4.2.4h.4l-.4.2zm0 2l.2.4-.4-.3-.3.3.2-.4-.4-.2h.4l.1-.4.2.4h.4l-.4.2zm0-8l.2.4-.4-.2-.3.2.2-.4-.4-.2h.4l.1-.4.2.4h.4l-.4.2zm-2 2l.1.4-.3-.2-.3.2.1-.4-.3-.2h.4l.1-.4.1.4h.4l-.3.2zm0 2l.1.4-.3-.3-.3.3.1-.4-.3-.2h.4l.1-.4.1.4h.4l-.3.2zm0 2l.1.4-.3-.3-.3.3.1-.4-.3-.2h.4l.1-.4.1.4h.4l-.3.2zm0 2l.1.4-.3-.3-.3.3.1-.4-.3-.2h.4l.1-.4.1.4h.4l-.3.2zm0-8l.1.4-.3-.2-.3.2.1-.4L9 .8h.4l.1-.4.1.4h.4l-.3.2zM7.5 3l.1.4-.3-.2-.3.2.1-.4-.3-.2h.4l.1-.4.1.4h.4l-.3.2zm0 2l.1.4-.3-.3-.3.3.1-.4-.3-.2h.4l.1-.4.1.4h.4l-.3.2zm0 2l.1.4-.3-.3-.3.3.1-.4-.3-.2h.4l.1-.4.1.4h.4l-.3.2zm0 2l.1.4-.3-.3-.3.3.1-.4-.3-.2h.4l.1-.4.1.4h.4l-.3.2zm0-8l.1.4-.3-.2-.3.2.1-.4-.3-.2h.4l.1-.4.1.4h.4l-.3.2zM5.4 3l.1.4-.3-.2-.3.2L5 3l-.3-.2h.4l.1-.4.1.4h.4l-.3.2zm0 2l.1.4-.3-.3-.3.3L5 5l-.3-.2h.4l.1-.4.1.4h.4l-.3.2zm0 2l.1.4-.3-.3-.3.3L5 7l-.3-.2h.4l.1-.4.1.4h.4l-.3.2zm0 2l.1.4-.3-.3-.3.3L5 9l-.3-.2h.4l.1-.4.1.4h.4l-.3.2zm0-8l.1.4-.3-.2-.3.2L5 1 4.7.8h.4l.1-.4.1.4h.4l-.3.2zM3.3 3l.2.4-.4-.2-.3.2L3 3l-.4-.2H3l.1-.4.2.4h.4l-.4.2zm0 2l.2.4-.4-.3-.3.3L3 5l-.4-.2H3l.1-.4.2.4h.4l-.4.2zm0 2l.2.4-.4-.3-.3.3L3 7l-.4-.2H3l.1-.4.2.4h.4l-.4.2zm0 2l.2.4-.4-.3-.3.3L3 9l-.4-.2H3l.1-.4.2.4h.4l-.4.2zm0-8l.2.4-.4-.2-.3.2L3 1 2.6.8H3l.1-.4.2.4h.4l-.4.2zM1.2 3l.2.4-.3-.2-.1-.1v.1l-.3.2.2-.4-.4-.2h.4l.1-.4.2.4h.4l-.4.2zm0 2l.2.4-.3-.3H1l-.3.3.2-.4-.4-.2h.4l.1-.4.2.4h.4l-.4.2zm0 2l.2.4-.3-.3H1l-.3.3.2-.4-.4-.2h.4l.1-.4.2.4h.4l-.4.2zm0 2l.2.4-.3-.3H1l-.3.3.2-.4-.4-.2h.4l.1-.4.2.4h.4l-.4.2zm0-8l.2.4-.3-.2H1l-.3.2.2-.4L.5.8h.4L1 .4l.2.4h.4l-.4.2z" fill="#fff"/></g></svg>

<svg width="18" height="18" viewBox="0 0 18 18" fill="none" xmlns="http://www.w3.org/2000/svg">
<mask id="mask0_2129_11547" style="mask-type:alpha" maskUnits="userSpaceOnUse" x="0" y="0" width="18" height="18">
<circle cx="9" cy="9" r="9" fill="#D9D9D9"/>
</mask>
<g mask="url(#mask0_2129_11547)">
<path d="M34.3 6.5H0V8.1H34.3V6.5Z" fill="#DB2E2E"/>
<path d="M34.3 3.3H0V4.9H34.3V3.3Z" fill="#DB2E2E"/>
<path d="M34.3 0H0V1.6H34.3V0Z" fill="#DB2E2E"/>
<path d="M34.3 9.8H0V11.4H34.3V9.8Z" fill="#DB2E2E"/>
<path d="M34.3 13H0V14.6H34.3V13Z" fill="#DB2E2E"/>
<path d="M34.3 16.3H0V17.9H34.3V16.3Z" fill="#DB2E2E"/>
<path d="M34.3 19.6H0V21.2H34.3V19.6Z" fill="#DB2E2E"/>
<path d="M34.3 4.9H0V6.5H34.3V4.9Z" fill="white"/>
<path d="M34.3 1.6H0V3.2H34.3V1.6Z" fill="white"/>
<path d="M34.3 8.2H0V9.8H34.3V8.2Z" fill="white"/>
<path d="M34.3 11.4H0V13H34.3V11.4Z" fill="white"/>
<path d="M34.3 14.7H0V16.3H34.3V14.7Z" fill="white"/>
<path d="M34.3 17.9H0V19.5H34.3V17.9Z" fill="white"/>
<path d="M12.8 0.1H0V10H12.8V0.1Z" fill="#2E4593"/>
<path d="M10.7 2L10.8 2.4L10.5 2.2L10.2 2.4L10.3 2L10 1.8H10.4L10.5 1.4L10.6 1.8H11L10.7 2Z" fill="white"/>
<path d="M10.7 4L10.8 4.4L10.5 4.1L10.2 4.4L10.3 4L10 3.8H10.4L10.5 3.4L10.6 3.8H11L10.7 4Z" fill="white"/>
<path d="M10.7 6L10.8 6.4L10.5 6.1L10.2 6.4L10.3 6L10 5.8H10.4L10.5 5.4L10.6 5.8H11L10.7 6Z" fill="white"/>
<path d="M10.7 8L10.8 8.4L10.5 8.1L10.2 8.4L10.3 8L10 7.8H10.4L10.5 7.4L10.6 7.8H11L10.7 8Z" fill="white"/>
<path d="M8.6 2L8.7 2.4L8.4 2.2L8.1 2.4L8.2 2L7.9 1.8H8.3L8.4 1.4L8.5 1.8H8.9L8.6 2Z" fill="white"/>
<path d="M8.6 4L8.7 4.4L8.4 4.1L8.1 4.4L8.2 4L7.9 3.8H8.3L8.4 3.4L8.5 3.8H8.9L8.6 4Z" fill="white"/>
<path d="M8.6 6L8.7 6.4L8.4 6.1L8.1 6.4L8.2 6L7.9 5.8H8.3L8.4 5.4L8.5 5.8H8.9L8.6 6Z" fill="white"/>
<path d="M8.6 8L8.7 8.4L8.4 8.1L8.1 8.4L8.2 8L7.9 7.8H8.3L8.4 7.4L8.5 7.8H8.9L8.6 8Z" fill="white"/>
<path d="M6.5 2L6.6 2.4L6.3 2.2L6 2.4L6.1 2L5.8 1.8H6.2L6.3 1.4L6.4 1.8H6.8L6.5 2Z" fill="white"/>
<path d="M6.5 4L6.6 4.4L6.3 4.1L6 4.4L6.1 4L5.8 3.8H6.2L6.3 3.4L6.4 3.8H6.8L6.5 4Z" fill="white"/>
<path d="M6.5 6L6.6 6.4L6.3 6.1L6 6.4L6.1 6L5.8 5.8H6.2L6.3 5.4L6.4 5.8H6.8L6.5 6Z" fill="white"/>
<path d="M6.5 8L6.6 8.4L6.3 8.1L6 8.4L6.1 8L5.8 7.8H6.2L6.3 7.4L6.4 7.8H6.8L6.5 8Z" fill="white"/>
<path d="M4.4 2L4.5 2.4L4.2 2.2L3.9 2.4L4 2L3.7 1.8H4.1L4.2 1.4L4.3 1.8H4.7L4.4 2Z" fill="white"/>
<path d="M4.4 4L4.5 4.4L4.2 4.1L3.9 4.4L4 4L3.7 3.8H4.1L4.2 3.4L4.3 3.8H4.7L4.4 4Z" fill="white"/>
<path d="M4.4 6L4.5 6.4L4.2 6.1L3.9 6.4L4 6L3.7 5.8H4.1L4.2 5.4L4.3 5.8H4.7L4.4 6Z" fill="white"/>
<path d="M4.4 8L4.5 8.4L4.2 8.1L3.9 8.4L4 8L3.7 7.8H4.1L4.2 7.4L4.3 7.8H4.7L4.4 8Z" fill="white"/>
<path d="M2.3 2L2.4 2.4L2.1 2.2L1.8 2.4L1.9 2L1.6 1.8H2L2.1 1.4L2.2 1.8H2.6L2.3 2Z" fill="white"/>
<path d="M2.3 4L2.4 4.4L2.1 4.1L1.8 4.4L1.9 4L1.6 3.8H2L2.1 3.4L2.2 3.8H2.6L2.3 4Z" fill="white"/>
<path d="M2.3 6L2.4 6.4L2.1 6.1L1.8 6.4L1.9 6L1.6 5.8H2L2.1 5.4L2.2 5.8H2.6L2.3 6Z" fill="white"/>
<path d="M2.3 8L2.4 8.4L2.1 8.1L1.8 8.4L1.9 8L1.6 7.8H2L2.1 7.4L2.2 7.8H2.6L2.3 8Z" fill="white"/>
<path d="M11.7 3L11.9 3.4L11.5 3.2L11.2 3.4L11.4 3L11 2.8H11.4L11.5 2.4L11.7 2.8H12.1L11.7 3Z" fill="white"/>
<path d="M11.7 5L11.9 5.4L11.5 5.1L11.2 5.4L11.4 5L11 4.8H11.4L11.5 4.4L11.7 4.8H12.1L11.7 5Z" fill="white"/>
<path d="M11.7 7L11.9 7.4L11.5 7.1L11.2 7.4L11.4 7L11 6.8H11.4L11.5 6.4L11.7 6.8H12.1L11.7 7Z" fill="white"/>
<path d="M11.7 9L11.9 9.4L11.5 9.1L11.2 9.4L11.4 9L11 8.8H11.4L11.5 8.4L11.7 8.8H12.1L11.7 9Z" fill="white"/>
<path d="M11.7 1L11.9 1.4L11.5 1.2L11.2 1.4L11.4 1L11 0.8H11.4L11.5 0.4L11.7 0.8H12.1L11.7 1Z" fill="white"/>
<path d="M9.7 3L9.8 3.4L9.5 3.2L9.2 3.4L9.3 3L9 2.8H9.4L9.5 2.4L9.6 2.8H10L9.7 3Z" fill="white"/>
<path d="M9.7 5L9.8 5.4L9.5 5.1L9.2 5.4L9.3 5L9 4.8H9.4L9.5 4.4L9.6 4.8H10L9.7 5Z" fill="white"/>
<path d="M9.7 7L9.8 7.4L9.5 7.1L9.2 7.4L9.3 7L9 6.8H9.4L9.5 6.4L9.6 6.8H10L9.7 7Z" fill="white"/>
<path d="M9.7 9L9.8 9.4L9.5 9.1L9.2 9.4L9.3 9L9 8.8H9.4L9.5 8.4L9.6 8.8H10L9.7 9Z" fill="white"/>
<path d="M9.7 1L9.8 1.4L9.5 1.2L9.2 1.4L9.3 1L9 0.8H9.4L9.5 0.4L9.6 0.8H10L9.7 1Z" fill="white"/>
<path d="M7.5 3L7.6 3.4L7.3 3.2L7 3.4L7.1 3L6.8 2.8H7.2L7.3 2.4L7.4 2.8H7.8L7.5 3Z" fill="white"/>
<path d="M7.5 5L7.6 5.4L7.3 5.1L7 5.4L7.1 5L6.8 4.8H7.2L7.3 4.4L7.4 4.8H7.8L7.5 5Z" fill="white"/>
<path d="M7.5 7L7.6 7.4L7.3 7.1L7 7.4L7.1 7L6.8 6.8H7.2L7.3 6.4L7.4 6.8H7.8L7.5 7Z" fill="white"/>
<path d="M7.5 9L7.6 9.4L7.3 9.1L7 9.4L7.1 9L6.8 8.8H7.2L7.3 8.4L7.4 8.8H7.8L7.5 9Z" fill="white"/>
<path d="M7.5 1L7.6 1.4L7.3 1.2L7 1.4L7.1 1L6.8 0.8H7.2L7.3 0.4L7.4 0.8H7.8L7.5 1Z" fill="white"/>
<path d="M5.4 3L5.5 3.4L5.2 3.2L4.9 3.4L5 3L4.7 2.8H5.1L5.2 2.4L5.3 2.8H5.7L5.4 3Z" fill="white"/>
<path d="M5.4 5L5.5 5.4L5.2 5.1L4.9 5.4L5 5L4.7 4.8H5.1L5.2 4.4L5.3 4.8H5.7L5.4 5Z" fill="white"/>
<path d="M5.4 7L5.5 7.4L5.2 7.1L4.9 7.4L5 7L4.7 6.8H5.1L5.2 6.4L5.3 6.8H5.7L5.4 7Z" fill="white"/>
<path d="M5.4 9L5.5 9.4L5.2 9.1L4.9 9.4L5 9L4.7 8.8H5.1L5.2 8.4L5.3 8.8H5.7L5.4 9Z" fill="white"/>
<path d="M5.4 1L5.5 1.4L5.2 1.2L4.9 1.4L5 1L4.7 0.8H5.1L5.2 0.4L5.3 0.8H5.7L5.4 1Z" fill="white"/>
<path d="M3.3 3L3.5 3.4L3.1 3.2L2.8 3.4L3 3L2.6 2.8H3L3.1 2.4L3.3 2.8H3.7L3.3 3Z" fill="white"/>
<path d="M3.3 5L3.5 5.4L3.1 5.1L2.8 5.4L3 5L2.6 4.8H3L3.1 4.4L3.3 4.8H3.7L3.3 5Z" fill="white"/>
<path d="M3.3 7L3.5 7.4L3.1 7.1L2.8 7.4L3 7L2.6 6.8H3L3.1 6.4L3.3 6.8H3.7L3.3 7Z" fill="white"/>
<path d="M3.3 9L3.5 9.4L3.1 9.1L2.8 9.4L3 9L2.6 8.8H3L3.1 8.4L3.3 8.8H3.7L3.3 9Z" fill="white"/>
<path d="M3.3 1L3.5 1.4L3.1 1.2L2.8 1.4L3 1L2.6 0.8H3L3.1 0.4L3.3 0.8H3.7L3.3 1Z" fill="white"/>
<path d="M1.2 3L1.4 3.4L1.1 3.2L1 3.1V3.2L0.7 3.4L0.9 3L0.5 2.8H0.9L1 2.4L1.2 2.8H1.6L1.2 3Z" fill="white"/>
<path d="M1.2 5L1.4 5.4L1.1 5.1H1L0.7 5.4L0.9 5L0.5 4.8H0.9L1 4.4L1.2 4.8H1.6L1.2 5Z" fill="white"/>
<path d="M1.2 7L1.4 7.4L1.1 7.1H1L0.7 7.4L0.9 7L0.5 6.8H0.9L1 6.4L1.2 6.8H1.6L1.2 7Z" fill="white"/>
<path d="M1.2 9L1.4 9.4L1.1 9.1H1L0.7 9.4L0.9 9L0.5 8.8H0.9L1 8.4L1.2 8.8H1.6L1.2 9Z" fill="white"/>
<path d="M1.2 1L1.4 1.4L1.1 1.2H1L0.7 1.4L0.9 1L0.5 0.8H0.9L1 0.4L1.2 0.8H1.6L1.2 1Z" fill="white"/>
</g>
</svg>
